filmstrip-box-multiple.svg

<svg fill="currentColor" viewBox="0 0 24 24"><path d="M4 6H2v14a2 2 0 0 0 2 2h14v-2H4zm16-4H8a2 2 0 0 0-2 2v12a2 2 0 0 0 2 2h12a2 2 0 0 0 2-2V4a2 2 0 0 0-2-2M10 15H8v-2h2zm0-4H8V9h2zm0-4H8V5h2zm10 8h-2v-2h2zm0-4h-2V9h2zm0-4h-2V5h2z"/></svg>

<svg  viewBox="0 0 24 24" fill="currentColor"><path  d="M4,6H2V20A2,2 0 0,0 4,22H18V20H4V6M20,2H8A2,2 0 0,0 6,4V16A2,2 0 0,0 8,18H20A2,2 0 0,0 22,16V4A2,2 0 0,0 20,2M10,15H8V13H10V15M10,11H8V9H10V11M10,7H8V5H10V7M20,15H18V13H20V15M20,11H18V9H20V11M20,7H18V5H20V7Z"/></svg>
